resources/svg/run-line.svg

<svg fill="currentColor" viewBox="0 0 24 24" xmlns="http://www.w3.org/2000/svg"><path d="M9.82986 8.78986L7.99998 9.45588V13H5.99998V8.05H6.015L11.2834 6.13247C11.5274 6.03855 11.7922 5.99162 12.0648 6.0008C13.1762 6.02813 14.1522 6.75668 14.4917 7.82036C14.678 8.40431 14.848 8.79836 15.0015 9.0025C15.9138 10.2155 17.3653 11 19 11V13C16.8253 13 14.8823 12.0083 13.5984 10.4526L12.9008 14.4085L15 16.17V23H13V17.1025L10.7307 15.1984L10.003 19.3253L3.10938 18.1098L3.45667 16.1401L8.38071 17.0084L9.82986 8.78986ZM13.5 5.5C12.3954 5.5 11.5 4.60457 11.5 3.5C11.5 2.39543 12.3954 1.5 13.5 1.5C14.6046 1.5 15.5 2.39543 15.5 3.5C15.5 4.60457 14.6046 5.5 13.5 5.5Z"/></svg>

<svg xmlns="http://www.w3.org/2000/svg" viewBox="0 0 24 24" fill="currentColor">
    <g>
        <path fill="none" d="M0 0h24v24H0z"/>
        <path d="M9.83 8.79L8 9.456V13H6V8.05h.015l5.268-1.918c.244-.093.51-.14.782-.131a2.616 2.616 0 0 1 2.427 1.82c.186.583.356.977.51 1.182A4.992 4.992 0 0 0 19 11v2a6.986 6.986 0 0 1-5.402-2.547l-.697 3.956L15 16.17V23h-2v-5.898l-2.27-1.904-.727 4.127-6.894-1.215.348-1.97 4.924.868L9.83 8.79zM13.5 5.5a2 2 0 1 1 0-4 2 2 0 0 1 0 4z"/>
    </g>
</svg>
